!!!!SEGMENT: pl-wnifc--6576-n--002_beyer-ferdinand--gwiazdka-op-116.krn
!!!cenid: 18xx:3962
!!!COM: Beyer, Ferdinand
!!!COM-rismID: pe30008241
!!!CDT: 1803/07/25-1863/05/14
!!!CNT: German
!!!OTL: Gwiazdka op. 116
!!!PDT:
!!!AGN:
!!!SMS-siglum: PL-Wnifc
!!!SMS-shelfmark: 6576/n
!!!SMS-shelfwork: 002 W
!!!SMS-variant:
!!!SMS-altvar:
!!!NIFC-rismSourceID: 1001213395
!!!NIFC-rismChildID: 1001143870
!!!NIFC-islandoraID: nifc:212871
!!!URL-pdf-islandora: https://repozytorium.nifc.pl/islandora/object/nifc%3A212871/datastream/PDF/view
!!!URL-scan: https://polish.musicsources.pl/pl/lokalizacje/galeria/klocki-introligatorskie/686 @EN{Scan on Polish Music Sources Website} @PL{Skany w portalu Dziedzictwo Muzyki Polskiej w otwartym dostępie}
!!!IIIF:
!!!ONB-nifc: UWAGA: skany 8-10
!!!AIN: 2 piano
!!!key: d
**kern	**fing	**dynam	**kern	**fing	**dynam
*part2	*part2	*part2	*part1	*part1	*part1
*staff2	*	*	*staff1	*	*
*I"PIANO.	*	*	*I"PIANO.	*	*
*I'pf	*	*	*I'pf	*	*
*ICklav	*	*	*ICklav	*	*
*Ipiano	*	*	*Ipiano	*	*
*clefF4	*	*	*clefG2	*	*
*k[b-]	*	*	*k[b-]	*	*
*d:	*	*	*d:	*	*
*M3/4	*	*	*M3/4	*	*
=1	=1	=1	=1	=1	=1
!	!	!	!LO:TX:a:t=No. 1. GWIAZDKA (Mon Etoile de Prince Casimir LUBOMIRSKI.)	!	!
!	!	!	!LO:TX:a:t=Recueil élégant des chansons polonaises favorites.	!	!
!	!	!	!LO:TX:a:B:t=Tempo di Mazurka.	!	!
*	*	*	*	*below	*
(8.F\L	1	.	(<8.f/L	4	p
16E\K	.	.	16e/K	.	.
8.D\	.	.	8.d/	.	.
16C\K	1	.	16c/K	.	.
8.BB-\	.	.	8.B-/	4	.
!	!	!	!LO:TX:a:t=LES\nONDINES DE LA VISTULE	!	!
16GG#X\Jk)	.	.	16G#X/Jk)	.	.
=2	=2	=2	=2	=2	=2
(8.AA\L	1	.	(8.A</L	.	.
16FF\K	.	<	16F</K	.	.
8.DD\	.	.	8.D</	.	.
16EE\K	.	.	16E</K	.	.
8.FF\	.	.	8.F</	.	.
16GG\Jk)	.	[[	16G</Jk)	.	.
=3	=3	=3	=3	=3	=3
2.AAA\ 2.AA	.	>]	2.D</ 2.F#X< 2.A<	.	.
=4	=4	=4	=4	=4	=4
!	!	!	!LO:TX:a:t=par FERD&colon; BEYER Op&colon; 116.	!	!
2.AAA\ 2.AA	.	.	2.C#X</ 2.G< 2.A<	.	.
=5	=5	=5	=5	=5	=5
[2.DD\ [2.AA	.	.	[2.D</ [2.F#X< [2.A<	.	.
=6	=6	=6	=6	=6	=6
4DD\] 4AA]	.	.	4D</] 4F#<] 4A<]	.	.
4rFF	.	.	4rG<	.	.
4rFF	.	.	4rG<	.	.
!!LO:LB:g=original	!	!	!	!	!
=7	=7	=7	=7	=7	=7
(8.d\L	1	.	(8.dd/L	5	mf
16c\K	.	.	16cc/K	.	.
!	!	!	!	!	!LO:HP:b:t=dim.
8.B-\	.	.	8.b-/	.	>
16A\K	1	.	16a/K	.	.
8.G\	.	.	8.g/	.	.
16E-X\Jk)	.	.	16e-X/Jk)	4	.
=8	=8	=8	=8	=8	=8
*	*below	*	*	*	*
(8.D/L	1	.	(8.d/L	.	.
16BB-/K	.	.	16B-/K	.	.
8.GG/	.	.	8.G/	.	.
16AA/K	.	.	16A/K	.	.
8.BB-/	.	.	8.B-/	.	.
16C/Jk)	.	.	16c/Jk)	.	.
=9	=9	=9	=9	=9	=9
2.FF/ 2.D	.	.	2.F/ 2.B- 2.d	.	p
=10	=10	=10	=10	=10	=10
2.FF/ 2.E-X	.	.	2.A/ 2.c 2.f	.	.
=11	=11	=11	=11	=11	=11
2.FF#X/ 2.D	.	.	2.A/ 2.c 2.d	.	.
=12	=12	=12	=12	=12	=12
4GG/ 4D	.	.	4G/ 4B- 4d	.	<
4AA/ 4D	.	.	4F/ 4A 4d	.	.
4BB-/ 4D	.	.	4F/ 4G#X 4d	.	[[
=13	=13	=13	=13	=13	=13
*ped	*	*	*	*	*
4AA/ 4D	.	.	4F/ 4A 4d	.	>
4r	.	.	4r	.	]
4r	.	.	4r	.	.
*clefG2	*	*	*	*	*
!!LO:LB:g=original	!	!	!	!	!
=14	=14	=14	=14	=14	=14
*	*	*	*8va	*	*
.	.	.	(16qqggg#X/LL	.	.
.	.	.	16qqbbb-/JJ	.	.
4a^\ 4aa	.	.	4aaa`\)	.	.
*	*	*	*X8va	*	*
4r	.	.	4r	.	.
4r	.	.	4r	.	.
*Xped	*	*	*	*	*
*clefF4	*	*	*	*	*
=15	=15	=15	=15	=15	=15
*ped	*	*	*	*	*
4AAA\ 4AA	.	.	4E<^>/ 4G< 4A< 4c#X	.	.
4r	.	.	4r	.	.
4r	.	.	4r	.	.
*clefG2	*	*	*	*	*
=16	=16	=16	=16	=16	=16
*	*	*	*8va	*	*
.	.	.	(16qqggg#X/LL	.	.
.	.	.	16qqbbb-/JJ	.	.
4a^\ 4aa	.	.	4aaa`\)	.	.
*	*	*	*X8va	*	*
4r	.	.	4r	.	.
4r	.	.	4r	.	.
*Xped	*	*	*	*	*
*clefF4	*	*	*	*	*
=17||	=17||	=17||	=17||	=17||	=17||
4DD/ 4D	.	.	8.f\L 8.a 8.ff	.	mf
.	.	.	16f\Jk 16a 16ff	.	.
4D\ 4A 4d	.	.	4f\ 4a 4ee	.	.
4D\ 4A 4d	.	.	4f\ 4a 4dd	.	.
=18	=18	=18	=18	=18	=18
4FF/ 4F	.	.	8.a\L 8.dd 8.aa	.	.
.	.	.	16a\Jk 16dd 16aa	.	.
4F\ 4A 4d	.	.	4b-\ 4dd 4bb-	.	.
4F\ 4A 4d	.	.	4a\ 4dd 4aa	.	.
=19	=19	=19	=19	=19	=19
*	*	*	*ped	*	*
4AAA/ 4AA	.	.	8.g\L 8.a 8.cc#X 8.ee	.	.
.	.	.	16g\Jk 16a 16ee	.	.
4A\ 4c#X	.	.	4g\ 4a 4ff	.	.
4A\ 4c#	.	.	4g\ 4a 4ee	.	.
*	*	*	*Xped	*	*
!!LO:LB:g=original	!	!	!	!	!
=20	=20	=20	=20	=20	=20
*	*	*	*ped	*above	*
4DD/ 4D	.	.	4f\ 4a 4dd	.	.
.	.	.	(16qqccc#X/LL	2	.
.	.	.	16qqeee/JJ	.	.
4F\ 4A 4d	.	.	4ddd^<\)	.	.
4F\ 4A 4d	.	.	4r	.	.
*	*	*	*Xped	*	*
=21	=21	=21	=21	=21	=21
4DD/ 4D	.	.	8.f\L 8.a 8.ff	.	f
.	.	.	16f\Jk 16a 16ff	.	.
4D\ 4A 4d	.	.	4f\ 4a 4ee	.	.
4D\ 4A 4d	.	.	4f\ 4a 4dd	.	.
=22	=22	=22	=22	=22	=22
4FF/ 4F	.	.	8.a\L 8.dd 8.aa	.	.
.	.	.	16a\Jk 16dd 16aa	.	.
4F\ 4A 4d	.	.	4b-\ 4dd 4bb-	.	.
4F\ 4A 4d	.	.	4a\ 4dd 4aa	.	.
=23	=23	=23	=23	=23	=23
*	*	*	*ped	*	*
4AAA/ 4AA	.	.	8.g\L 8.a 8.cc#X 8.ee	.	.
.	.	.	16g\Jk 16a 16ee	.	.
4A\ 4c#X	.	.	4g\ 4a 4ff	.	.
4A\ 4c#	.	.	4g\ 4a 4ee	.	.
*	*	*	*Xped	*	*
=24	=24	=24	=24	=24	=24
*	*	*	*ped	*	*
4DD/ 4D	.	.	4f\ 4a 4dd	.	.
*	*	*	*8va	*	*
.	.	.	(16qqcccc#X/LL	.	.
.	.	.	16qqeeee/JJ	.	.
4D^^\ 4F 4A 4d	.	.	4dddd^^\)	.	.
*	*	*	*X8va	*	*
4F\ 4A 4d	.	.	4r	.	.
=25	=25	=25	=25	=25	=25
4CC/ 4C	.	.	8.e/L 8.g 8.b- 8.cc	.	mf
.	.	.	16e/Jk 16g 16b- 16cc	.	.
4C\ 4G 4c	.	.	4e/ 4g 4b- 4dd	.	.
4C\ 4G 4c	.	.	4e/ 4g 4b- 4cc	.	.
*	*	*	*Xped	*	*
!!LO:PB:g=original	!	!	!	!	!
=26	=26	=26	=26	=26	=26
4FF/ 4F	.	.	8.a\L 8.cc 8.ff	.	<
.	.	.	16a\Jk 16cc 16ff	.	.
4F\ 4A 4c 4f	.	.	4a\ 4cc 4ee	.	.
4F\ 4A 4c 4f	.	.	4a\ 4cc 4ff	.	.
=27	=27	=27	=27	=27	=27
*	*	*	*ped	*	*
4CC/ 4C	.	.	8.cc\L 8.ee 8.gg	.	.
.	.	.	16cc\Jk 16ee 16gg	.	[
4G\ 4B- 4c 4e	.	.	4cc\ 4ee 4gg 4ccc	.	>
4G\ 4B- 4c 4e	.	.	4cc\ 4ee 4gg 4bb-	.	]]
*	*	*	*Xped	*	*
=28	=28	=28	=28	=28	=28
*	*	*	*ped	*	*
4FFF/ 4FF	.	.	4cc\ 4ff 4aa	.	.
*	*	*	*8va	*	*
.	.	.	(16qqggg#X/LL	.	.
.	.	.	16qqbbb-/JJ	.	.
4F\ 4A 4c 4f	.	.	4aaa^^\)	.	.
*	*	*	*X8va	*	*
4F\ 4A 4c 4f	.	.	4r	.	.
*	*	*	*Xped	*	*
=29	=29	=29	=29	=29	=29
*	*	*	*ped	*	*
4AAA/ 4AA	.	.	8.g\L 8.a 8.cc#X 8.ee	.	.
.	.	.	16g\Jk 16a 16ee	.	.
4A\ 4c#X	.	.	4g\ 4a 4ff	.	.
4A\ 4c#	.	.	4g\ 4a 4ee	.	.
*	*	*	*Xped	*	*
=30	=30	=30	=30	=30	=30
4DD/ 4D	.	.	8.f\L 8.a 8.dd	.	<
.	.	.	16a\Jk 16dd 16aa	.	.
4F\ 4A 4d	.	.	4b-\ 4dd 4bb-	.	[ >
4F\ 4A 4d	.	.	4a\ 4dd 4aa	.	]]
!!LO:LB:g=original	!	!	!	!	!
=31	=31	=31	=31	=31	=31
*	*	*	*ped	*	*
4AAA/ 4AA	.	.	8.g\L 8.a 8.cc#X 8.ee	.	.
.	.	.	16g\Jk 16a 16ee	.	.
4A\ 4c#X	.	.	4g\ 4a 4ff	.	.
4A\ 4c#	.	.	4g\ 4a 4ee	.	.
*	*	*	*Xped	*	*
=32	=32	=32	=32	=32	=32
*	*	*	*ped	*	*
4DD/ 4D	.	.	4f\ 4a 4dd	.	.
*	*	*	*8va	*	*
.	.	.	(16qqcccc#X/LL	.	fz
.	.	.	16qqeeee/JJ	.	.
4D\ 4F 4A 4d	.	.	4dddd^^\)	.	.
*	*	*	*X8va	*	*
4F\ 4A 4d	.	.	4r	.	.
*	*	*	*Xped	*	*
=33	=33	=33	=33	=33	=33
4CC/ 4C	.	.	8.cc\L 8.ccc	.	f
.	.	.	16cc\Jk 16ccc	.	.
4G\ 4B- 4c 4e	.	.	4dd\ 4ddd	.	.
4G\ 4B- 4c 4e	.	.	4cc\ 4ccc	.	.
=34	=34	=34	=34	=34	=34
4FF/ 4F	.	.	8.ff\L 8.fff	.	.
.	.	.	16ff\Jk 16fff	.	.
4A\ 4c 4f	.	.	4ee\ 4eee	.	.
4A\ 4c 4f	.	.	4ff\ 4fff	.	.
=35	=35	=35	=35	=35	=35
*	*	*	*ped	*	*
*	*	*	*8va	*	*
4CC/ 4C	.	.	8.gg\L 8.ggg	.	<
.	.	.	16gg\Jk 16ggg	.	.
4G\ 4B- 4c 4e	.	.	4ccc\ 4cccc	.	[ >
4G\ 4B- 4c 4e	.	.	4bb-\ 4bbb-	.	]]
*	*	*	*Xped	*	*
!!LO:LB:g=original	!	!	!	!	!
=36	=36	=36	=36	=36	=36
*	*	*	*ped	*	*
4FF/ 4F	.	.	4aa\ 4aaa	.	.
.	.	.	16qqggg#X/LL	.	.
.	.	.	16qqbbb-/JJ	.	.
4F\ 4A 4c 4f	.	.	2aaa^<\	.	.
4F\ 4A 4c 4f	.	.	.	.	.
*	*	*	*Xped	*	*
=37	=37	=37	=37	=37	=37
*	*	*	*ped	*	*
4AAA/ 4AA	.	.	8.ee\L 8.gg 8.eee	.	mf
.	.	.	16ee\Jk 16gg 16eee	.	.
4A\ 4c#X 4g	.	.	4ff\ 4aa 4fff	.	.
4A\ 4c# 4g	.	.	4ee\ 4gg 4eee	.	.
*	*	*	*Xped	*	*
=38	=38	=38	=38	=38	=38
*	*	*	*ped	*	*
4DD/ 4D	.	.	8.dd\L 8.ff 8.ddd	.	<
.	.	.	16aa\Jk 16aaa	.	.
4A\ 4d 4f	.	.	4bb-\ 4bbb-	.	[ >
4A\ 4d 4f	.	.	4aa\ 4aaa	.	]]
*	*	*	*Xped	*	*
=39	=39	=39	=39	=39	=39
*	*	*	*ped	*	*
4AAA/ 4AA	.	.	8.ee\L 8.gg 8.eee	.	.
.	.	.	16ee\Jk 16gg 16eee	.	.
4A\ 4c#X 4g	.	.	4ff\ 4aa 4fff	.	.
4A\ 4c# 4g	.	.	4ee\ 4gg 4eee	.	.
*	*	*	*Xped	*	*
=40	=40	=40	=40	=40	=40
*	*	*	*ped	*	*
4DD/ 4D	.	.	4dd\ 4ff 4ddd	.	.
.	.	.	(16qqcccc#X/LL	.	.
.	.	.	16qqeeee/JJ	.	.
4D^^\ 4F 4A 4d	.	.	4dddd^^\)	.	.
*	*	*	*X8va	*	*
4r	.	.	4r	.	.
*	*	*	*Xped	*	*
!!LO:LB:g=original	!	!	!	!	!
=41||	=41||	=41||	=41||	=41||	=41||
*k[b-e-]	*	*	*k[b-e-]	*	*
*B-:	*	*	*B-:	*	*
*	*	*	*ped	*	*
!	!	!	!LO:TUP:a	!	!
4BBB-/ 4BB-	.	.	12ff'\L 12fff	.	fz
.	.	.	12ddd'\	.	>
.	.	.	12bb-'\J	.	.
4F\ 4B- 4d	.	.	4ff'\	.	.
*	*	*	*	*below	*
4B-\ 4d 4f	.	.	4b-^^\ 4dd 4ff	2	]
*	*	*	*Xped	*	*
=42	=42	=42	=42	=42	=42
*	*	*	*ped	*	*
*	*	*	*Xtuplet	*	*
4EE-/ 4E-	.	.	12gg'\L 12ggg	.	fz
.	.	.	12eee-'\	.	>
.	.	.	12bb-'\J	.	.
4G\ 4B- 4e-	.	.	4gg'\	.	.
4B-\ 4e- 4g	.	.	4b-^^\ 4ee- 4gg	.	]
*	*	*	*Xped	*	*
=43	=43	=43	=43	=43	=43
*	*	*	*ped	*	*
*	*	*	*8va	*	*
4FF/ 4F	.	.	12aa'\L	.	<
.	.	.	12ccc'\	.	.
.	.	.	12eee-'\J	.	.
4F\ 4A 4c 4e-	.	.	4ggg'\	.	.
4A\ 4c 4e- 4f	.	.	4aa^^\ 4ccc 4eee- 4fff	.	[
*	*	*	*Xped	*	*
=44	=44	=44	=44	=44	=44
*	*	*	*ped	*	*
4BB-\ 4B-	.	.	12ddd'\L	.	<
.	.	.	12fff'\	.	.
.	.	.	12bbb-'\J	.	.
*clefG2	*	*	*	*	*
4B-/ 4d 4f	.	.	4dddd'\	.	.
4d/ 4f 4b-	.	.	4ddd^^\ 4fff 4bbb-	.	[
*clefF4	*	*	*X8va	*	*
*	*	*	*Xped	*	*
!!LO:LB:g=original	!	!	!	!	!
=45	=45	=45	=45	=45	=45
*	*	*	*ped	*	*
4BBB-/ 4BB-	.	.	12ff'\L 12fff	.	fz
.	.	.	12ddd'\	.	>
.	.	.	12bb-'\J	.	.
4F\ 4B- 4d	.	.	4ff'\	.	.
4B-\ 4d 4f	.	.	4b-^^\ 4dd 4ff	.	]
*	*	*	*Xped	*	*
=46	=46	=46	=46	=46	=46
*	*	*	*ped	*	*
4EE-/ 4E-	.	.	12gg'\L 12ggg	.	fz
.	.	.	12eee-'\	.	>
.	.	.	12bb-'\J	.	.
4G\ 4B- 4e-	.	.	4gg'\	.	.
4B-\ 4e- 4g	.	.	4b-^^\ 4ee- 4gg	.	]
*	*	*	*Xped	*	*
=47	=47	=47	=47	=47	=47
*	*	*	*ped	*	*
*	*	*	*8va	*	*
4FF/ 4F	.	.	12aa'\L	.	<
.	.	.	12ccc'\	.	.
.	.	.	12eee-'\J	.	.
*clefG2	*	*	*tuplet	*	*
!	!	!	!LO:TUP:a:problem:klamra łukowa	!	!
4A/ 4c 4e- 4f	.	.	6aa'\ 6ccc 6eee- 6ggg	.	fz [
.	.	.	12fff\	.	>
!	!	!	!LO:TUP:a:problem:klamra łukowa	!	!
*	*	*	*Xtuplet	*	*
4c/ 4e- 4f 4a	.	.	12eee-\L	.	.
!	!	!	!LO:TX:t=P:problem: 16qqeee- oraz 12eee- połączone jedną główką nuty	!	!
.	.	.	16qqeee-/LL	.	.
.	.	.	16qqfff/	.	.
.	.	.	16qqeee-/JJ	.	.
.	.	.	12ddd\	.	.
.	.	.	12ccc\J	.	]
*clefF4	*	*	*Xped	*	*
=48	=48	=48	=48	=48	=48
*	*	*	*ped	*above	*
4BBB-/ 4BB-	.	.	12bb-'\L	2	<
.	.	.	12ddd'\	1	.
.	.	.	12fff'\J	3	[
*clefG2	*	*	*	*	*
4B-/ 4d 4f 4b-	.	.	4bb-'\ 4bbb-	.	>
4r	.	.	4r	.	]
*clefF4	*	*	*X8va	*	*
*	*	*	*Xped	*	*
!!LO:PB:g=original	!	!	!	!	!
=49	=49	=49	=49	=49	=49
*	*	*	*ped	*	*
4BBB-/ 4BB-	.	.	12ff'\L 12fff	.	fz
.	.	.	12ddd'\	.	>
.	.	.	12bb-'\J	.	.
4F\ 4B- 4d	.	.	4ff'\	.	.
4B-\ 4d 4f	.	.	4b-^^\ 4dd 4ff	.	]
*	*	*	*Xped	*	*
=50	=50	=50	=50	=50	=50
*	*	*	*ped	*	*
4EE-/ 4E-	.	.	12gg'\L 12ggg	.	fz
.	.	.	12eee-'\	.	>
.	.	.	12bb-'\J	.	.
4G\ 4B- 4e-	.	.	4gg'\	.	.
4B-\ 4e- 4g	.	.	4b-^^\ 4ee- 4gg	.	]
*	*	*	*Xped	*	*
=51	=51	=51	=51	=51	=51
*	*	*	*ped	*	*
*	*	*	*8va	*	*
4FF/ 4F	.	.	12aa'\L	.	<
.	.	.	12ccc'\	.	.
.	.	.	12eee-'\J	.	.
4F\ 4A 4c 4e-	.	.	4ggg'\	.	.
4A\ 4c 4e- 4f	.	.	4aa^^\ 4ccc 4eee- 4fff	.	[
*	*	*	*Xped	*	*
=52	=52	=52	=52	=52	=52
*	*	*	*ped	*	*
4BB-\ 4B-	.	.	12ddd'\L	.	<
.	.	.	12fff'\	.	.
.	.	.	12bbb-'\J	.	.
*clefG2	*	*	*	*	*
4B-/ 4d 4f	.	.	4dddd'\	.	.
4d/ 4f 4b-	.	.	4ddd^^\ 4fff 4bbb-	.	[
*	*	*	*X8va	*	*
*clefF4	*	*	*Xped	*	*
=53	=53	=53	=53	=53	=53
*	*	*	*ped	*	*
4BBB-/ 4BB-	.	.	12ff'\L 12fff	.	fz
.	.	.	12ddd'\	.	>
.	.	.	12bb-'\J	.	.
4F\ 4B- 4d	.	.	4ff'\	.	.
4B-\ 4d 4f	.	.	4b-^^\ 4dd 4ff	.	]
*	*	*	*Xped	*	*
!!LO:LB:g=original	!	!	!	!	!
=54	=54	=54	=54	=54	=54
*	*	*	*ped	*	*
4EE-/ 4E-	.	.	12gg'\L 12ggg	.	fz
.	.	.	12eee-'\	.	>
.	.	.	12bb-'\J	.	.
4G\ 4B- 4e-	.	.	4gg'\	.	.
4B-\ 4e- 4g	.	.	4b-^^\ 4ee- 4gg	.	]
*	*	*	*Xped	*	*
=55	=55	=55	=55	=55	=55
*	*	*	*ped	*	*
*	*	*	*8va	*	*
4FF/ 4F	.	.	12aa'\L	.	<
.	.	.	12ccc'\	.	.
.	.	.	12eee-'\J	.	.
*clefG2	*	*	*	*	*
!	!	!	!LO:TUP:a:problem:klamra łukowa	!	!
4A/ 4c 4e- 4f	.	.	6aa'\ 6ccc 6eee- 6ggg	.	[ fz
.	.	.	12fff\	.	>
!	!	!	!LO:TUP:a:problem:klamra łukowa	!	!
!	!	!	!LO:TX:t=P:problem: 16qqeee- oraz 12eee- połączone jedną główką nuty	!	!
4c/ 4e- 4f 4a	.	.	12eee-\L	.	.
.	.	.	16qqeee-/LL	.	.
.	.	.	16qqfff/	.	.
.	.	.	16qqeee-/JJ	.	.
.	.	.	12ddd\	.	.
.	.	.	12ccc\J	.	]
*clefF4	*	*	*Xped	*	*
=56	=56	=56	=56	=56	=56
*	*	*	*ped	*	*
4BBB-/ 4BB-	.	.	12bb-'\L	.	<
.	.	.	12ddd'\	.	.
.	.	.	12fff'\J	.	.
*clefG2	*	*	*	*	*
4B-/ 4d 4f 4b-	.	.	4bb-'\ 4bbb-	.	[ >
4r	.	.	4r	.	]
*	*	*	*X8va	*	*
*clefF4	*	*	*Xped	*	*
=57||	=57||	=57||	=57||	=57||	=57||
*	*	*	*ped	*	*
8DD\L 8D	.	.	8dd\L 8ddd	.	ff
16r	.	.	16r	.	.
*	*	*	*Xped	*	*
16D\Jk 16F#X 16A	.	.	(16d\K	1	.
[2D\ 2G 2B-	.	.	8e-X\)	2	.
.	.	.	16r	.	.
.	.	.	(16g\K	1	p
.	.	.	8b-\)	.	.
.	.	.	16r	.	.
.	.	.	(16ee-X\Jk	.	.
=58	=58	=58	=58	=58	=58
4D\] 4F#X 4A	.	.	8dd\L)	1	.
.	.	.	16r	.	.
.	.	.	(16ff#X\K	.	.
4r	.	.	8aa\)	.	.
.	.	.	16r	.	.
.	.	.	(16ff#\K	.	.
4r	.	.	8dd\)	.	.
.	.	.	16r	.	.
.	.	.	(16a\Jk	5	.
!!LO:LB:g=original	!	!	!	!	!
=59	=59	=59	=59	=59	=59
*	*	*	*ped	*	*
8DD\L 8D	.	.	8f#X\L) 8dd	.	fz
16r	.	.	16r	.	.
*	*	*	*Xped	*	*
16D\Jk 16F#X 16A	.	.	(16d\K	.	.
[2D\ 2G 2B-	.	.	8e-X\)	.	.
.	.	.	16r	.	.
.	.	.	(16g\K	.	.
.	.	.	8b-\)	.	p
.	.	.	16r	.	.
.	.	.	(16ee-\Jk	.	.
=60	=60	=60	=60	=60	=60
8D\] 8F#X 8A	.	.	8dd\L)	.	.
8r	.	.	16r	.	.
.	.	.	(16ff#X\K	.	.
4r	.	.	8aa\)	.	.
.	.	.	16r	.	.
.	.	.	(16ff#\K	4	.
(4A\ 4c#X 4g	.	.	8a\) 8een	.	>
.	.	.	16r	.	.
.	.	.	(16ff#\Jk	.	]
=61	=61	=61	=61	=61	=61
8d'\) 8f#X	.	.	8a\L) 8dd	.	.
8r	.	.	16r	.	.
.	.	.	(16ff#X\K	.	.
4r	.	.	8aa\)	.	.
.	.	.	16r	.	.
.	.	.	(16ff#\K	.	.
(4A\ 4c#X 4g	.	.	8a\) 8een	.	>
.	.	.	16r	.	.
.	.	.	(16ff#\Jk	.	]
=62	=62	=62	=62	=62	=62
8d\) 8f#X	.	.	8a\L) 8dd	.	.
8r	.	.	16r	.	.
.	.	.	(16aa\K	.	.
(4A\ 4c#X 4g	.	.	8a\) 8een	.	>
.	.	.	16r	.	.
.	.	.	(16ff#X\K	.	]
8d'\) 8f#	.	.	8a\) 8dd	.	.
8r	.	.	16r	.	.
.	.	.	(16aa\Jk	.	.
!!LO:LB:g=original	!	!	!	!	!
=63	=63	=63	=63	=63	=63
(4A\ 4c#X 4g	.	.	8a\L) 8een	.	>
.	.	.	16r	.	.
.	.	.	(16ff#X\K	.	]
8d'\) 8f#X	.	.	8a\) 8dd	.	.
8r	.	.	16r	.	.
.	.	.	(16aa\K	.	.
(4A\ 4c# 4g	.	.	8a\) 8ee	.	>
.	.	.	16r	.	.
.	.	.	(16ff#\Jk	.	]
=64	=64	=64	=64	=64	=64
8d'\L) 8f#X	.	.	8a\L) 8dd	.	<
16r	.	.	16r	.	.
(16D\K	.	.	(16aa\Jk	.	.
8fn\)	.	.	4bn\) 4dd 4gg#X	.	[ >
16r	.	.	.	.	.
(16D\K	.	.	.	.	.
8en\)	.	.	4b-X\ 4cc#X 4ggn	.	]]
16r	.	.	.	.	.
(16D\Jk	.	.	.	.	.
=65	=65	=65	=65	=65	=65
8e-X\L)	.	.	4a\ 4ccn 4ff#X	.	.
16r	.	.	.	.	.
(16D\K	.	.	.	.	.
8d\)	.	.	4g#X\ 4bn 4ffn	.	.
16r	.	.	.	.	.
(16D\K	.	.	.	.	.
8c#X\)	.	.	4gn\ 4b-X 4een	.	.
16r	.	.	.	.	.
(16D\Jk	.	.	.	.	.
=66	=66	=66	=66	=66	=66
8cn\L)	.	.	4f#X\ 4a 4ee-X	.	.
16r	.	.	.	.	.
(16D\K	.	.	.	.	.
8Bn\)	.	.	4fn\ 4a-X 4dd	.	.
16r	.	.	.	.	.
(16D\K	.	.	.	.	.
8B\)	.	.	4f\ 4a- 4dd	.	.
16r	.	.	.	.	.
16D\Jk	.	.	.	.	.
!!LO:LB:g=original	!	!	!	!	!
=67	=67	=67	=67	=67	=67
[2F\ 2c	.	.	2f\ 2an 2ee-	.	<
4F\] 4c#X	.	.	4g\ 4b- 4een	.	[
=68	=68	=68	=68	=68	=68
*	*	*	*ped	*	*
4BBB-/ 4BB-	.	.	12ff'\L 12fff	.	fz
.	.	.	12ddd'\	.	>
.	.	.	12bb-'\J	.	.
4F\ 4B- 4d	.	.	4ff'\	.	.
4B-\ 4d 4f	.	.	4b-^^\ 4dd 4ff	.	]
*	*	*	*Xped	*	*
=69	=69	=69	=69	=69	=69
*	*	*	*ped	*	*
4EE-/ 4E-	.	.	12gg'\L 12ggg	.	fz
.	.	.	12eee-'\	.	>
.	.	.	12bb-'\J	.	.
4G\ 4B- 4e-	.	.	4gg'\	.	.
4B-\ 4e- 4g	.	.	4b-^^\ 4ee- 4gg	.	]
*	*	*	*Xped	*	*
=70	=70	=70	=70	=70	=70
*	*	*	*ped	*	*
*	*	*	*8va	*	*
4FF/ 4F	.	.	12aa'\L	.	<
.	.	.	12ccc'\	.	.
.	.	.	12eee-'\J	.	.
4F\ 4A 4c 4e-	.	.	4ggg'\	.	.
4A\ 4c 4e- 4f	.	.	4aa^^\ 4ccc 4eee- 4fff	.	[
*	*	*	*Xped	*	*
=71	=71	=71	=71	=71	=71
*	*	*	*ped	*	*
4BB-\ 4B-	.	.	12ddd'\L	.	<
.	.	.	12fff'\	.	.
.	.	.	12bbb-'\J	.	.
*clefG2	*	*	*	*	*
4B-/ 4d 4f	.	.	4dddd'\	.	.
4d/ 4f 4b-	.	.	4ddd^^\ 4fff 4bbb-	.	[
*clefF4	*	*	*X8va	*	*
*	*	*	*Xped	*	*
!!LO:PB:g=original	!	!	!	!	!
=72	=72	=72	=72	=72	=72
*	*	*	*ped	*	*
4BBB-/ 4BB-	.	.	12ff'\L 12fff	.	fz
.	.	.	12ddd'\	.	>
.	.	.	12bb-'\J	.	.
4F\ 4B- 4d	.	.	4ff'\	.	.
4B-\ 4d 4f	.	.	4b-^^\ 4dd 4ff	.	]
*	*	*	*Xped	*	*
=73	=73	=73	=73	=73	=73
*	*	*	*ped	*	*
4EE-/ 4E-	.	.	12gg'\L 12ggg	.	fz
.	.	.	12eee-'\	.	>
.	.	.	12bb-'\J	.	.
4G\ 4B- 4e-	.	.	4gg'\	.	.
4B-\ 4e- 4g	.	.	4b-^^\ 4ee- 4gg	.	]
*	*	*	*Xped	*	*
=74	=74	=74	=74	=74	=74
*	*	*	*ped	*	*
*	*	*	*8va	*	*
4FF/ 4F	.	.	12aa'\L	.	<
.	.	.	12ccc'\	.	.
.	.	.	12eee-'\J	.	.
*clefG2	*	*	*	*	*
!	!	!	!LO:TUP:a:problem:klamra łukowa	!	!
4A/ 4c 4e- 4f	.	.	6aa'\ 6ccc 6eee- 6ggg	.	[ fz
.	.	.	12fff\	.	>
!	!	!	!LO:TUP:a:problem:klamra łukowa	!	!
!	!	!	!LO:TX:t=P:problem: 16qqeee- oraz 12eee- połączone jedną główką nuty	!	!
4c/ 4e- 4f 4a	.	.	12eee-\L	.	.
.	.	.	16qqeee-/LL	.	.
.	.	.	16qqfff/	.	.
.	.	.	16qqeee-/JJ	.	.
.	.	.	12ddd\	.	.
.	.	.	12ccc\J	.	]
*clefF4	*	*	*Xped	*	*
=75	=75	=75	=75	=75	=75
*	*	*	*ped	*	*
4BBB-/ 4BB-	.	.	12bb-'\L	.	<
.	.	.	12ddd'\	.	.
.	.	.	12fff'\J	.	.
*clefG2	*	*	*	*	*
4B-/ 4d 4f 4b-	.	.	4bb-'\ 4bbb-	.	[ >
4r	.	.	4r	.	]
*	*	*	*X8va	*	*
*clefF4	*	*	*Xped	*	*
=76	=76	=76	=76	=76	=76
*	*	*	*ped	*	*
8DD\L 8D	.	.	8dd\L 8ddd	.	f
16r	.	.	16r	.	.
*	*	*	*Xped	*	*
16D\Jk 16F#X 16A	.	.	(16d\K	.	.
[2D\ 2G 2B-	.	.	8e-\)	.	.
.	.	.	16r	.	.
.	.	.	(16g\K	.	p
.	.	.	8b-\)	.	.
.	.	.	16r	.	.
.	.	.	(16ee-\Jk	.	.
!!LO:LB:g=original	!	!	!	!	!
=77	=77	=77	=77	=77	=77
4D\] 4F#X 4A	.	.	8dd\L)	.	.
.	.	.	16r	.	.
.	.	.	(16ff#X\K	.	.
4r	.	.	8aa\)	.	.
.	.	.	16r	.	.
.	.	.	(16ff#\K	.	.
4r	.	.	8dd\)	.	.
.	.	.	16r	.	.
.	.	.	(16a\Jk	.	.
=78	=78	=78	=78	=78	=78
*	*	*	*ped	*	*
8DD\L 8D	.	.	8f#X\L) 8dd	.	f
16r	.	.	16r	.	.
*	*	*	*Xped	*	*
16D\Jk 16F#X 16A	.	.	(16d\K	.	.
[2D\ 2G 2B-	.	.	8e-\)	.	.
.	.	.	16r	.	.
.	.	.	(16g\K	.	.
.	.	.	8b-\)	.	p
.	.	.	16r	.	.
.	.	.	(16ee-\Jk	.	.
=79	=79	=79	=79	=79	=79
8D\] 8F#X 8A	.	.	8dd\L)	.	.
8r	.	.	16r	.	.
.	.	.	(16ff#X\K	.	.
4r	.	.	8aa\)	.	.
.	.	.	16r	.	.
.	.	.	(16ff#\K	.	.
(4A\ 4c#X 4g	.	.	8a\) 8een	.	>
.	.	.	16r	.	.
.	.	.	(16ff#\Jk	.	]
=80	=80	=80	=80	=80	=80
8d'\) 8f#X	.	.	8a\L) 8dd	.	.
8r	.	.	16r	.	.
.	.	.	(16ff#X\K	.	.
4r	.	.	8aa\)	.	.
.	.	.	16r	.	.
.	.	.	(16ff#\K	.	.
(4A\ 4c#X 4g	.	.	8a\) 8een	.	>
.	.	.	16r	.	.
.	.	.	(16ff#\Jk	.	]
!!LO:LB:g=original	!	!	!	!	!
=81	=81	=81	=81	=81	=81
8d\) 8f#X	.	.	8a\L) 8dd	.	.
8r	.	.	16r	.	.
.	.	.	(16aa\K	.	.
(4A\ 4c#X 4g	.	.	8a\) 8een	.	>
.	.	.	16r	.	.
.	.	.	(16ff#X\K	.	]
8d'\) 8f#	.	.	8a\) 8dd	.	.
8r	.	.	16r	.	.
.	.	.	(16aa\Jk	.	.
=82	=82	=82	=82	=82	=82
(4A\ 4c#X 4g	.	.	8a\L) 8een	.	>
.	.	.	16r	.	.
.	.	.	(16ff#X\K	.	]
8d\) 8f#X	.	.	8a\) 8dd	.	.
8r	.	.	16r	.	.
.	.	.	(16aa\K	.	.
(4A\ 4c# 4g	.	.	8a\) 8ee	.	>
.	.	.	16r	.	.
.	.	.	(16ff#\Jk	.	]
=83	=83	=83	=83	=83	=83
8d\L) 8f#X	.	.	8a\L) 8dd	.	<
16r	.	.	16r	.	.
(16D\K	.	.	(16aa\Jk	.	.
8fn\)	.	.	4bn\) 4dd 4gg#X	.	[ >
16r	.	.	.	.	.
(16D\K	.	.	.	.	]
8en\)	.	.	4b-X\ 4cc#X 4ggn	.	.
16r	.	.	.	.	.
(16D\Jk	.	.	.	.	.
=84	=84	=84	=84	=84	=84
8e-X\L)	.	.	4a\ 4ccn 4ff#X	.	.
16r	.	.	.	.	.
(16D\K	.	.	.	.	.
8d\)	.	.	4g#X\ 4bn 4ffn	.	.
16r	.	.	.	.	.
(16D\K	.	.	.	.	.
!	!	!	!	!	!LO:HP:b:t=dim.
8c#X\)	.	.	4gn\ 4b-X 4een	.	>
16r	.	.	.	.	.
(16D\Jk	.	.	.	.	.
!!LO:LB:g=original	!	!	!	!	!
=85	=85	=85	=85	=85	=85
8cn\L)	.	.	4f#X\ 4a 4ee-X	.	.
16r	.	.	.	.	.
!	!	!LO:HP:a	!	!	!
(16D\K	.	<	.	.	.
8Bn\)	.	.	4fn\ 4a-X 4dd	.	.
16r	.	.	.	.	.
(16D\K	.	.	.	.	.
8B\)	.	.	4f\ 4a- 4dd	.	.
16r	.	.	.	.	.
(16D\Jk	.	[[	.	.	.
=86	=86	=86	=86	=86	=86
!	!	!LO:HP:a	!	!	!
[2F\ 2c)	.	<	2f\ 2an 2ee-	.	.
4F\] 4c#X	.	.	4g\ 4b- 4een	.	.
=87	=87	=87	=87	=87	=87
*	*	*	*ped	*	*
4BBB-/ 4BB-	.	.	12ff'\L 12fff	.	fz
.	.	.	12ddd'\	.	>
.	.	.	12bb-'\J	.	.
4F\ 4B- 4d	.	.	4ff'\	.	.
4B-\ 4d 4f	.	.	4b-^^\ 4dd 4ff	.	]
*	*	*	*Xped	*	*
=88	=88	=88	=88	=88	=88
*	*	*	*ped	*	*
4EE-/ 4E-	.	.	12gg'\L 12ggg	.	fz
.	.	.	12eee-'\	.	>
.	.	.	12bb-'\J	.	.
4G\ 4B- 4e-	.	.	4gg'\	.	.
4B-\ 4e- 4g	.	.	4b-^^\ 4ee- 4gg	.	]
*	*	*	*Xped	*	*
=89	=89	=89	=89	=89	=89
*	*	*	*ped	*	*
*	*	*	*8va	*	*
4FF/ 4F	.	.	12aa'\L	.	<
.	.	.	12ccc'\	.	.
.	.	.	12eee-'\J	.	.
4F\ 4A 4c 4e-	.	.	4ggg'\	.	.
4A\ 4c 4e- 4f	.	.	4aa^^\ 4ccc 4eee- 4fff	.	[
*	*	*	*Xped	*	*
!!LO:LB:g=original	!	!	!	!	!
=90	=90	=90	=90	=90	=90
*	*	*	*ped	*	*
4BB-\ 4B-	.	.	12ddd'\L	.	<
.	.	.	12fff'\	.	.
.	.	.	12bbb-'\J	.	.
*clefG2	*	*	*	*	*
4B-/ 4d 4f	.	.	4dddd'\	.	.
4d/ 4f 4b-	.	.	4ddd^^\ 4fff 4bbb-	.	[
*clefF4	*	*	*X8va	*	*
*	*	*	*Xped	*	*
=91	=91	=91	=91	=91	=91
*	*	*	*ped	*	*
4BBB-/ 4BB-	.	.	12ff'\L 12fff	.	fz
.	.	.	12ddd'\	.	>
.	.	.	12bb-'\J	.	.
4F\ 4B- 4d	.	.	4ff'\	.	.
4B-\ 4d 4f	.	.	4b-^^\ 4dd 4ff	.	]
*	*	*	*Xped	*	*
=92	=92	=92	=92	=92	=92
*	*	*	*ped	*	*
4EE-/ 4E-	.	.	12gg'\L 12ggg	.	fz
.	.	.	12eee-'\	.	>
.	.	.	12bb-'\J	.	.
4G\ 4B- 4e-	.	.	4gg'\	.	.
4B-\ 4e- 4g	.	.	4b-^^\ 4ee- 4gg	.	]
*	*	*	*Xped	*	*
=93	=93	=93	=93	=93	=93
*	*	*	*ped	*	*
*	*	*	*8va	*	*
4FF/ 4F	.	.	12aa'\L	.	<
.	.	.	12ccc'\	.	.
.	.	.	12eee-'\J	.	.
*clefG2	*	*	*	*	*
!	!	!	!LO:TUP:a:problem:klamra łukowa	!	!
4A/ 4c 4e- 4f	.	.	6aa'\ 6ccc 6eee- 6ggg	.	[ fz
.	.	.	12fff\	.	>
!	!	!	!LO:TUP:a:problem:klamra łukowa	!	!
!	!	!	!LO:TX:t=P:problem: 16qqeee- oraz 12eee- połączone jedną główką nuty	!	!
4c/ 4e- 4f 4a	.	.	12eee-\L	.	.
.	.	.	16qqeee-/LL	.	.
.	.	.	16qqfff/	.	.
.	.	.	16qqeee-/JJ	.	.
.	.	.	12ddd\	.	.
.	.	.	12ccc\J	.	]
*clefF4	*	*	*Xped	*	*
=94	=94	=94	=94	=94	=94
*	*	*	*ped	*	*
4BBB-/ 4BB-	.	.	12bb-'\L	.	<
.	.	.	12ddd'\	.	.
.	.	.	12fff'\J	.	.
*clefG2	*	*	*	*	*
4B-/ 4d 4f 4b-	.	.	4bb-'\ 4bbb-	.	[ >
4r	.	.	4r	.	]
*clefF4	*	*	*X8va	*	*
*	*	*	*Xped	*	*
!!LO:PB:g=original	!	!	!	!	!
=95||	=95||	=95||	=95||	=95||	=95||
*k[b-en]	*	*	*k[b-en]	*	*
4DD/ 4D	.	.	8.f\L 8.a 8.ff	.	mf
.	.	.	16f\Jk 16a 16ff	.	.
4D\ 4A 4d	.	.	4f\ 4a 4ee	.	.
4D\ 4A 4d	.	.	4f\ 4a 4dd	.	.
=96	=96	=96	=96	=96	=96
4FF/ 4F	.	.	8.a\L 8.dd 8.aa	.	.
.	.	.	16a\Jk 16dd 16aa	.	.
4F\ 4A 4d	.	.	4b-\ 4dd 4bb-	.	.
4F\ 4A 4d	.	.	4a\ 4dd 4aa	.	.
=97	=97	=97	=97	=97	=97
*	*	*	*ped	*	*
4AAA/ 4AA	.	.	8.g\L 8.a 8.cc#X 8.ee	.	.
.	.	.	16g\Jk 16a 16ee	.	.
4A\ 4c#X	.	.	4g\ 4a 4ff	.	.
4A\ 4c#	.	.	4g\ 4a 4ee	.	.
*	*	*	*Xped	*	*
=98	=98	=98	=98	=98	=98
*	*	*	*ped	*	*
4DD/ 4D	.	.	4f\ 4a 4dd	.	.
.	.	.	(16qqccc#X/LL	.	.
.	.	.	16qqeee/JJ	.	.
4F\ 4A 4d	.	.	4ddd^<\)	.	.
4F\ 4A 4d	.	.	4r	.	.
*	*	*	*Xped	*	*
=99	=99	=99	=99	=99	=99
*	*	*	*ped	*	*
4DD/ 4D	.	.	8.ff\L 8.fff	.	f
.	.	.	16ff\Jk 16fff	.	.
4F\ 4A 4d	.	.	4ee\ 4eee	.	.
4A\ 4d 4f	.	.	4dd\ 4ddd	.	.
*	*	*	*Xped	*	*
!!LO:LB:g=original	!	!	!	!	!
=100	=100	=100	=100	=100	=100
*	*	*	*ped	*	*
*	*	*	*8va	*	*
4DD/ 4D	.	.	8.aa\L 8.aaa	.	<
.	.	.	16aa\Jk 16aaa	.	.
4F\ 4A 4d	.	.	4bb-\ 4bbb-	.	[ >
4A\ 4d 4f	.	.	4aa\ 4aaa	.	]]
*	*	*	*Xped	*	*
=101	=101	=101	=101	=101	=101
*	*	*	*ped	*	*
4AAA/ 4AA	.	.	8.ee\L 8.gg 8.eee	.	.
.	.	.	16ee\Jk 16gg 16eee	.	.
4A\ 4c#X 4g	.	.	4ff\ 4aa 4fff	.	.
4A\ 4c# 4g	.	.	4ee\ 4gg 4eee	.	.
*	*	*	*Xped	*	*
=102	=102	=102	=102	=102	=102
*	*	*	*ped	*	*
4DD/ 4D	.	.	4ff\ 4aa 4ddd	.	.
.	.	.	(16qqcccc#X/LL	.	.
.	.	.	16qqeeee/JJ	.	.
4F\ 4A 4d	.	.	4dddd^<\)	.	.
*	*	*	*X8va	*	*
4A\ 4d 4f	.	.	4r	.	.
*	*	*	*Xped	*	*
=103	=103	=103	=103	=103	=103
4CC/ 4C	.	.	8.e/L 8.g 8.b- 8.cc	.	mf
.	.	.	16e/Jk 16g 16b- 16cc	.	.
4C\ 4G 4c	.	.	4e/ 4g 4b- 4dd	.	.
4C\ 4G 4c	.	.	4e/ 4g 4b- 4cc	.	.
=104	=104	=104	=104	=104	=104
*	*	*	*ped	*	*
4FF/ 4F	.	.	8.a\L 8.cc 8.ff	.	.
.	.	.	16a\Jk 16cc 16ff	.	.
4F\ 4A 4c 4f	.	.	4a\ 4cc 4ee	.	.
4F\ 4A 4c 4f	.	.	4a\ 4cc 4ff	.	.
*	*	*	*Xped	*	*
!!LO:LB:g=original	!	!	!	!	!
=105	=105	=105	=105	=105	=105
*	*	*	*ped	*	*
4CC/ 4C	.	.	8.cc\L 8.ee 8.gg	.	<
.	.	.	16cc\Jk 16ee 16gg	.	.
4G\ 4B- 4c 4e	.	.	4cc\ 4ee 4gg 4ccc	.	[ >
4G\ 4B- 4c 4e	.	.	4cc\ 4ee 4gg 4bb-	.	]]
*	*	*	*Xped	*	*
=106	=106	=106	=106	=106	=106
*	*	*	*ped	*	*
4FFF/ 4FF	.	.	4cc\ 4ff 4aa	.	.
*	*	*	*8va	*	*
.	.	.	(16qqggg#X/LL	.	.
.	.	.	16qqbbb-/JJ	.	.
4F\ 4A 4c 4f	.	.	4aaa^<\)	.	.
*	*	*	*X8va	*	*
4F\ 4A 4c 4f	.	.	4r	.	.
*	*	*	*Xped	*	*
=107	=107	=107	=107	=107	=107
*	*	*	*ped	*	*
4AAA/ 4AA	.	.	8.g:\L 8.a: 8.cc#X: 8.ee:	.	.
.	.	.	16g\Jk 16a 16ee	.	.
4A\ 4c#X	.	.	4g\ 4a 4ff	.	.
4A\ 4c#	.	.	4g\ 4a 4ee	.	.
*	*	*	*Xped	*	*
=108	=108	=108	=108	=108	=108
*	*	*	*ped	*	*
4DD/ 4D	.	.	8.f\L 8.a 8.dd	.	<
.	.	.	16a\Jk 16dd 16aa	.	.
4F\ 4A 4d	.	.	4b-\ 4dd 4bb-	.	[ >
4F\ 4A 4d	.	.	4a\ 4dd 4aa	.	]]
*	*	*	*Xped	*	*
=109	=109	=109	=109	=109	=109
*	*	*	*ped	*	*
4AAA/ 4AA	.	.	8.g:\L 8.a: 8.cc#X: 8.ee:	.	.
.	.	.	16g\Jk 16a 16ee	.	.
4A\ 4c#X	.	.	4g\ 4a 4ff	.	.
4A\ 4c#	.	.	4g\ 4a 4ee	.	.
*	*	*	*Xped	*	*
!!LO:LB:g=original	!	!	!	!	!
=110	=110	=110	=110	=110	=110
*	*	*	*ped	*	*
4DD/ 4D	.	.	4f\ 4a 4dd	.	.
*	*	*	*8va	*	*
.	.	.	(16qqcccc#X/LL	.	.
.	.	.	16qqeeee/JJ	.	.
4F\ 4A 4d	.	.	4dddd^<\)	.	.
*	*	*	*X8va	*	*
4F\ 4A 4d	.	.	4r	.	.
*	*	*	*Xped	*	*
=111	=111	=111	=111	=111	=111
*	*	*	*ped	*	*
4CC/ 4C	.	.	8.cc\L 8.ccc	.	f
.	.	.	16cc\Jk 16ccc	.	.
4G\ 4B- 4c 4e	.	.	4dd\ 4ddd	.	.
4G\ 4B- 4c 4e	.	.	4cc\ 4ccc	.	.
*	*	*	*Xped	*	*
=112	=112	=112	=112	=112	=112
*	*	*	*ped	*	*
4FF/ 4F	.	.	8.ff\L 8.fff	.	.
.	.	.	16ff\Jk 16fff	.	.
4A\ 4c 4f	.	.	4ee\ 4eee	.	.
4A\ 4c 4f	.	.	4ff\ 4fff	.	.
*	*	*	*Xped	*	*
=113	=113	=113	=113	=113	=113
*	*	*	*ped	*	*
*	*	*	*8va	*	*
4CC/ 4C	.	.	8.gg\L 8.ggg	.	<
.	.	.	16gg\Jk 16ggg	.	.
4G\ 4B- 4c 4e	.	.	4ccc\ 4cccc	.	[ >
4G\ 4B- 4c 4e	.	.	4bb-\ 4bbb-	.	]]
*	*	*	*Xped	*	*
=114	=114	=114	=114	=114	=114
*	*	*	*ped	*	*
4FF/ 4F	.	.	4aa\ 4aaa	.	.
.	.	.	(16qqggg#X/LL	.	.
.	.	.	16qqbbb-/JJ	.	.
4F\ 4A 4c 4f	.	.	2aaa^<\)	.	.
4F\ 4A 4c 4f	.	.	.	.	.
*	*	*	*Xped	*	*
!!LO:LB:g=original	!	!	!	!	!
=115	=115	=115	=115	=115	=115
*	*	*	*ped	*	*
4AAA/ 4AA	.	.	8.ee\L 8.gg 8.eee	.	mf
.	.	.	16ee\Jk 16gg 16eee	.	.
4A\ 4c#X 4g	.	.	4ff\ 4aa 4fff	.	.
4A\ 4c# 4g	.	.	4ee\ 4gg 4eee	.	.
*	*	*	*Xped	*	*
=116	=116	=116	=116	=116	=116
*	*	*	*ped	*	*
4DD/ 4D	.	.	8.dd\L 8.ff 8.ddd	.	<
.	.	.	16aa\Jk 16aaa	.	.
4F\ 4A 4d	.	.	4bb-\ 4bbb-	.	[ >
4A\ 4d 4f	.	.	4aa\ 4aaa	.	]]
*	*	*	*Xped	*	*
=117	=117	=117	=117	=117	=117
*	*	*	*ped	*	*
4AAA/ 4AA	.	.	8.ee\L 8.gg 8.eee	.	.
.	.	.	16ee\Jk 16gg 16eee	.	.
4A\ 4c#X 4g	.	.	4ff\ 4aa 4fff	.	.
4A\ 4c# 4g	.	.	4ee\ 4gg 4eee	.	.
*	*	*	*Xped	*	*
=118	=118	=118	=118	=118	=118
*	*	*	*ped	*	*
4DD/ 4D	.	.	4dd\ 4ff 4ddd	.	.
.	.	.	(16qqcccc#X/LL	.	.
.	.	.	16qqeeee/JJ	.	.
4A\ 4d 4f	.	.	4dddd^<\)	.	.
*	*	*	*X8va	*	*
4F\ 4A 4d	.	.	4r	.	.
*	*	*	*Xped	*	*
=119	=119	=119	=119	=119	=119
*^	*	*	*	*	*
!LO:TX:a:i:t=marcato.	!	!	!	!	!	!
2.c^^/	4rEE	.	.	8.f#X\L 8.a 8.dd	.	p
.	.	.	.	16f#\Jk 16a 16dd	.	.
.	4D\	.	.	4f#\ 4a 4ee-X	.	.
.	4D\	.	.	4f#\ 4a 4dd	.	.
!!LO:PB:g=original	!	!	!	!	!	!
=120	=120	=120	=120	=120	=120	=120
2.B-^^/	4rEE	.	.	8.g\L 8.dd 8.gg	.	.
.	.	.	.	16g\Jk 16dd 16gg	.	.
.	4D\	.	.	4f#X\ 4dd 4ff#X	.	.
.	4D\	.	.	4g\ 4dd 4gg	.	.
=121	=121	=121	=121	=121	=121	=121
4G^^/	4D\	.	.	8.b-\L 8.cc#X 8.ee 8.bb-	.	.
.	.	.	.	16b-\Jk 16cc# 16ee 16bb-	.	.
4A^^/	4D\	.	.	4a\ 4cc# 4ee 4aa	.	.
4B-^^/	4D\	.	.	4g\ 4cc# 4ee 4gg	.	.
*v	*v	*	*	*	*	*
=122	=122	=122	=122	=122	=122
*	*	*	*ped	*	*
8D\L 8A	.	.	2f#X:\ 2dd: 2aa:	.	fz
16r	.	.	.	.	.
!LO:TX:a:i:t=marcato.	!	!	!	!	!
*	*above	*	*	*	*
(16F#X\K	2	.	.	.	.
8D'\)	4	.	.	.	.
16r	.	.	.	.	.
(16AA\K	1	.	.	.	.
*	*	*	*Xped	*	*
8FF#X'\)	3	.	4r	.	.
16r	.	.	.	.	.
(16DD\Jk	1	.	.	.	.
=123	=123	=123	=123	=123	=123
*	*	*	*ped	*	*
8FFF#X'/)	4	.	8.dd\L 8.ddd	.	f
8r	.	.	.	.	.
.	.	.	16dd\Jk 16ddd	.	.
4F#X\ 4A 4c 4d	.	.	4ee-X\ 4eee-X	.	.
4F#\ 4A 4c 4d	.	.	4dd\ 4ddd	.	.
*	*	*	*Xped	*	*
=124	=124	=124	=124	=124	=124
*	*	*	*ped	*	*
*	*	*	*8va	*	*
4GGG/ 4GG	.	.	8.gg\L 8.ggg	.	<
.	.	.	16gg\Jk 16ggg	.	.
4G\ 4B- 4d 4g	.	.	4aa\ 4aaa	.	.
4G\ 4B- 4d 4g	.	.	4bb-\ 4bbb-	.	[[
*	*	*	*Xped	*	*
!!LO:LB:g=original	!	!	!	!	!
=125	=125	=125	=125	=125	=125
*	*	*	*ped	*	*
4AAA/ 4AA	.	.	12aa'\L 12aaa	.	>
.	.	.	12fff'\	.	.
.	.	.	12ddd'\J	.	.
4A\ 4d 4f 4a	.	.	4aa/	.	]
4A^\ 4c#X 4g	.	.	(8.ff\L 8.aa 8.fff	.	.
.	.	.	16ee\Jk) 16gg 16eee	.	.
*	*	*	*X8va	*	*
*	*	*	*Xped	*	*
=126	=126	=126	=126	=126	=126
*	*	*	*ped	*	*
4DD/ 4D	.	.	2dd\ 2ff 2ddd	.	.
!	!	!LO:HP:a:t=dim.	!	!	!
4D\ 4F 4A	.	>	.	.	.
4F\ 4A 4d	.	.	4r	.	.
*	*	*	*Xped	*	*
=127	=127	=127	=127	=127	=127
!	!	!	!LO:TX:a:t=una corda.	!	!
8.C\L 8.E	.	.	8.G</L 8.B-< 8.c	.	pp
16C\Jk 16E	.	.	16G</Jk 16B-< 16c	.	.
4C\ 4F	.	.	4G</ 4B-< 4d	.	.
4C\ 4E	.	.	4G</ 4B-< 4c	.	.
=128	=128	=128	=128	=128	=128
8.FF/L 8.C	.	.	8.A/L 8.c 8.f	.	<
16FF/Jk 16C	.	.	16A/Jk 16c 16f	.	.
4FF/ 4D-X	.	.	4G/ 4B- 4e	.	[ >
4FF/ 4C	.	.	4A/ 4c 4f	.	]]
=129	=129	=129	=129	=129	=129
8.C\L 8.B-	.	.	8.c/L 8.f 8.g	.	<
16C\Jk 16B-	.	.	16c/Jk 16f 16g	.	.
4C\ 4B-	.	.	4c/ 4e 4g 4cc	.	[ >
4C\ 4G	.	.	4c/ 4e 4g 4b-	.	]]
!!LO:LB:g=original	!	!	!	!	!
=130	=130	=130	=130	=130	=130
4C#X\ 4E	.	.	4A/ 4e 4a	.	.
4D\ 4F	.	.	4A/ 4f 4a	.	.
4FF/ 4D	.	.	4A/ 4d 4a	.	.
=131	=131	=131	=131	=131	=131
8.GG/L 8.D	.	.	8.B-/L 8.d 8.e	.	.
16GG/Jk 16D	.	.	16B-/Jk 16d 16e	.	.
4AA/ 4D	.	.	4A/ 4d 4f	.	.
4GG/ 4C#X	.	.	4A/ 4e	.	.
=132	=132	=132	=132	=132	=132
8.FF#X/L 8.D	.	.	8.A/L 8.c 8.d	.	<
16FF#/Jk 16D	.	.	16c/Jk 16d 16a	.	.
4GG/ 4D	.	.	4B-/ 4d 4b-	.	[ >
4FFn/ 4D	.	.	4A/ 4d 4a	.	]]
=133	=133	=133	=133	=133	=133
8.BB-/L 8.D	.	.	8.G#X/L 8.e	.	.
16BB-/Jk 16D	.	.	16G#/Jk 16e	.	.
4AA/ 4D	.	.	4A/ 4f	.	.
4AA/ 4C#X	.	.	4Gn/ 4e	.	.
=134	=134	=134	=134	=134	=134
*	*	*	*ped	*	*
!	!	!	!LO:TX:a:t=tre cordi.	!	!
4BBB-/ 4BB-	.	.	4F/ 4d	.	ff
2BB-:\ 2d: 2B-: 2d:	.	.	2dd^<\ 2ff 2bb- 2ddd	.	.
*	*	*	*Xped	*	*
=135	=135	=135	=135	=135	=135
*	*	*	*8va	*	*
!	!	!	!LO:TX:b:i:t=risoluto.	!	!
4GGG/ 4GG	.	.	8.ee\L 8.bb- 8.ddd 8.eee	.	.
.	.	.	16ee\Jk 16bb- 16ddd 16eee	.	.
4AAA/ 4AA	.	.	4ff\ 4aa 4ddd 4fff	.	.
4AAA/ 4AA	.	.	4ee\ 4gg 4ccc#X 4eee	.	.
=136	=136	=136	=136	=136	=136
*	*	*	*ped	*	*
4BBB-/ 4BB-	.	.	4dd\ 4ff 4ddd	.	.
2BB-:\ 2d: 2B-: 2d:	.	.	2ddd^<\ 2fff 2bbb- 2dddd	.	.
*	*	*	*Xped	*	*
=137	=137	=137	=137	=137	=137
4GG\ 4BB- 4D 4G	.	.	12fff'\L 12ffff	.	.
.	.	.	12eee'\ 12eeee	.	.
.	.	.	12ddd'\J 12dddd	.	.
8AA\ 8D 8F 8A	.	.	8aa'\ 8aaa	.	.
*	*	*	*X8va	*	*
8r	.	.	8r	.	.
(4AA\ 4E 4G	.	.	(4c#X^t/	.	.
.	.	.	16qqBn/LL	.	.
.	.	.	16qqc#/JJ	.	.
=138	=138	=138	=138	=138	=138
8D\) 8F	.	.	12d'/L)	.	.
.	.	.	12F'/ 12f	.	mf
8r	.	.	.	.	.
.	.	.	12B-X'/J 12b-	.	.
4r	.	.	12A'/L 12a	.	.
.	.	.	12A'/ 12a	.	.
.	.	.	12A'/J 12a	.	.
(4AA\ 4E 4G	.	.	12A'/L 12a	.	<
.	.	.	12Bn'/ 12bn	.	.
.	.	.	12c#X'/J 12cc#X	.	.
=139	=139	=139	=139	=139	=139
8D'\) 8F	.	.	12d'\L 12dd	.	.
.	.	.	12f'\ 12ff	.	.
8r	.	.	.	.	.
.	.	.	12b-'\J 12bb-	.	.
4r	.	.	12a'\L 12aa	.	.
.	.	.	12a'\ 12aa	.	.
.	.	.	12a'\J 12aa	.	.
(4AA\ 4E 4G	.	.	12a'\L 12aa	.	f
.	.	.	12bn'\ 12bbn	.	.
.	.	.	12cc#X'\J 12ccc#X	.	.
!!LO:LB:g=original	!	!	!	!	!
=140	=140	=140	=140	=140	=140
*	*	*	*8va	*	*
8D'\) 8F	.	.	12dd'\L 12ddd	.	.
.	.	.	12ff'\ 12fff	.	.
8r	.	.	.	.	.
.	.	.	12bb-'\J 12bbb-	.	.
4r	.	.	12aa'\L 12aaa	.	.
.	.	.	12aa'\ 12aaa	.	.
.	.	.	12aa'\J 12aaa	.	.
(4AA\ 4E 4G	.	.	12aa'\L 12aaa	.	<
.	.	.	12bbn'\ 12bbbn	.	.
.	.	.	12ccc#X'\J 12cccc#X	.	.
=141	=141	=141	=141	=141	=141
*	*	*	*ped	*	*
8D'\) 8F	.	.	12ddd'\L 12dddd	.	ff
.	.	.	12aaa'\	.	.
8r	.	.	.	.	.
.	.	.	12fff'\J	.	.
4r	.	.	12ddd'\L	.	.
*	*	*	*	*above	*
.	.	.	12aa'\	3	.
.	.	.	12ff'\J	.	.
*	*	*	*X8va	*	*
4r	.	.	12dd'\L	.	.
.	.	.	12a'\	.	.
.	.	.	12f'\J	.	.
*clefG2	*	*	*	*	*
=142	=142	=142	=142	=142	=142
*Xtuplet	*below	*	*	*	*
!	!	!	!LO:TX:b:i:t=fuocoso.	!	!
12d':/L 12dd:	.	.	12ddd'\L	.	.
12a'/	.	.	12aa'\	.	.
12f'/J	4	.	12ff'\J	.	.
*clefF4	*above	*	*	*	*
12d'\L	1	.	12dd'\L	.	.
12A'\	.	.	12a'\	.	.
12F'\J	.	.	12f'\J	.	.
12D'\L	.	.	12d'>/L	.	.
12AA'\	.	.	12A<'/	.	.
12FF'\J	.	.	12F<'/J	.	.
=143	=143	=143	=143	=143	=143
4DD'\	.	.	4D<'>/	.	.
4D\ 4F 4A 4d	.	.	4dd\ 4ff 4aa 4ddd	.	.
4D\ 4F 4A 4d	.	.	4ff\ 4aa 4ddd 4fff	.	.
*	*	*	*Xped	*	*
=144	=144	=144	=144	=144	=144
2DD/ 2D	.	.	2d/ 2f 2a 2dd	.	.
!LO:TX:b:i:t=Fine.	!	!	!	!	!
4r	.	.	4r	.	.
==	==	==	==	==	==
*-	*-	*-	*-	*-	*-
!!!system-decoration: {(s1,s2)}
!!!RDF**kern: > = above
!!!RDF**kern: < = below
!!!ENC: Solarz Mateusz
!!!END: 2022-07-29
!!!ENC: Jan Barakat
!!!END: 2022-08-27
!!!YEC: Copyright 2022 Narodowy Instytut Fryderyka Chopina (https://polishscores.org)
!!!YEM: License CC-BY-4.0 (https://creativecommons.org/licenses/by/4.0)
